Origami/24x24/apps/litecoin-qt.svg

<svg width="24" height="24" version="1.1" viewBox="0 0 24 24" xmlns="http://www.w3.org/2000/svg">
 <path d="m2.0098 12.207a10 10 0 0 0 -0.0098 0.293 10 10 0 0 0 10 10 10 10 0 0 0 10 -10 10 10 0 0 0 -0.0098 -0.20703 10 10 0 0 1 -9.99 9.707 10 10 0 0 1 -9.9902 -9.793z" opacity=".2"/>
 <circle cx="12" cy="12.053" r="8.571" style="fill:#ffffff"/>
 <path d="m12 2.0525735a10.000179 10.007685 0 0 0 -10 10.007852 10.000179 10.007685 0 0 0 0.007673 0.145061 10.000179 10.007685 0 0 1 9.992327 -9.7958389 10.000179 10.007685 0 0 1 9.992327 9.8572109 10.000179 10.007685 0 0 0 0.007673 -0.206433 10.000179 10.007685 0 0 0 -10 -10.007852z" style="fill:#ffffff;opacity:.2"/>
 <path d="m12 1.9999997a10 10 0 0 0 -10 10 10 10 0 0 0 10 10 10 10 0 0 0 9.999999 -10 10 10 0 0 0 -9.999999 -10z" style="fill:#4f4f4f"/>
 <path d="M 12.000001,5.4999981 A 7.0000009,7.0000009 0 0 1 19,12.499999 7.0000009,7.0000009 0 0 1 12.000001,19.5 7.0000009,7.0000009 0 0 1 5,12.499999 7.0000009,7.0000009 0 0 1 12.000001,5.4999981 Z" style="opacity:.2"/>
 <path d="M 12.000001,4.9999991 A 7.0000009,7.0000009 0 0 1 19,12 7.0000009,7.0000009 0 0 1 12.000001,19.000001 7.0000009,7.0000009 0 0 1 5,12 7.0000009,7.0000009 0 0 1 12.000001,4.9999991 Z" style="fill:#ffffff"/>
 <path d="m10.1 6-1.3340703 4.257115-1.1014229 0.385742-0.6645067 2.642857 1.0030692-0.350865-1.0030692 3.065151h9.3354929l0.664507-3h-4.860047l0.616186-1.728795 1.586607-0.485491 0.664507-2.6428573-1.487556 0.450614 0.880303-2.5934707z" style="fill:#4f4f4f"/>
 <path d="M 12 2 A 10 10 0 0 0 2 12 A 10 10 0 0 0 2.0097656 12.207031 A 10 10 0 0 1 12 2.5 A 10 10 0 0 1 21.990234 12.292969 A 10 10 0 0 0 22 12 A 10 10 0 0 0 12 2 z" style="fill:#ffffff;opacity:.1"/>
</svg>

<svg xmlns="http://www.w3.org/2000/svg" width="24" height="24" version="1.1" viewBox="0 0 24 24">
 <path opacity=".2" d="m2.0098 12.207a10 10 0 0 0 -0.0098 0.293 10 10 0 0 0 10 10 10 10 0 0 0 10 -10 10 10 0 0 0 -0.0098 -0.20703 10 10 0 0 1 -9.99 9.707 10 10 0 0 1 -9.9902 -9.793z"/>
 <circle style="fill:#ffffff" cx="12" cy="12.053" r="8.571"/>
 <path style="opacity:.2;fill:#ffffff" d="m12 2.0525735a10.000179 10.007685 0 0 0 -10 10.007852 10.000179 10.007685 0 0 0 0.007673 0.145061 10.000179 10.007685 0 0 1 9.992327 -9.7958389 10.000179 10.007685 0 0 1 9.992327 9.8572109 10.000179 10.007685 0 0 0 0.007673 -0.206433 10.000179 10.007685 0 0 0 -10 -10.007852z"/>
 <path style="fill:#4f4f4f" d="M 12,1.9999997 A 10,10 0 0 0 2,12 10,10 0 0 0 12,22 10,10 0 0 0 21.999999,12 10,10 0 0 0 12,1.9999997 Z"/>
 <path style="opacity:0.2" d="M 12.000001,5.4999981 A 7.0000009,7.0000009 0 0 1 19,12.499999 7.0000009,7.0000009 0 0 1 12.000001,19.5 7.0000009,7.0000009 0 0 1 5,12.499999 7.0000009,7.0000009 0 0 1 12.000001,5.4999981 Z"/>
 <path style="fill:#ffffff" d="M 12.000001,4.9999991 A 7.0000009,7.0000009 0 0 1 19,12 7.0000009,7.0000009 0 0 1 12.000001,19.000001 7.0000009,7.0000009 0 0 1 5,12 7.0000009,7.0000009 0 0 1 12.000001,4.9999991 Z"/>
 <path style="fill:#4f4f4f" d="M 10.1,6 8.7659297,10.257115 7.6645068,10.642857 7.0000001,13.285714 8.0030693,12.934849 7.0000001,16 h 4.2857139 5.049779 L 17,13 h -4.860047 l 0.616186,-1.728795 1.586607,-0.485491 0.664507,-2.6428573 -1.487556,0.450614 L 14.4,6 Z"/>
 <path style="fill:#ffffff;opacity:0.1" d="M 12 2 A 10 10 0 0 0 2 12 A 10 10 0 0 0 2.0097656 12.207031 A 10 10 0 0 1 12 2.5 A 10 10 0 0 1 21.990234 12.292969 A 10 10 0 0 0 22 12 A 10 10 0 0 0 12 2 z"/>
</svg>
